!!!!SEGMENT: pl-wtm--r-1461--003_stefani-jozef--wszechstronne-cwiczenia-glosowe-adagio.krn
!!!cenid: 18xx:2180
!!!COM: Stefani, Józef
!!!COM-rismID: pe30024097
!!!CDT: 1800/04/16-1876/03/19
!!!CNT: Polish
!!!GTL: Wszechstronne ćwiczenia głosowe
!!!OTL: Adagio
!!!PDT:
!!!AGN: Secular
!!!SMS-siglum: PL-Wtm
!!!SMS-shelfmark: R 1461
!!!SMS-shelfwork: 003 G
!!!SMS-variant:
!!!SMS-altvar:
!!!NIFC-rismSourceID: 1001120710
!!!NIFC-rismChildID: 1001120710
!!!NIFC-islandoraID: pl-wtm:25869
!!!URL-pdf-islandora: https://repozytorium.nifc.pl/islandora/object/pl-wtm%3A25869/datastream/PDF/view
!!!URL-scan: https://polish.musicsources.pl/pl/lokalizacje/galeria/rekopisy/6276/4 @EN{Scan on Polish Music Sources Website} @PL{Skany w portalu Dziedzictwo Muzyki Polskiej w otwartym dostępie}
!!!ONB-nifc: UWAGA: skan 0004, s. 5
!!!OMD: Adagio
!!!AIN: 1 empty 1 tenor
!!!key:
**kern	**kern	**kern	**text	**dynam
*part2	*part2	*part1	*part1	*part1
*staff3	*staff2	*staff1	*staff1	*
*Iempty	*Iforte	*Itenor	*	*
*	*I"Fortepian	*I"Sopran/Tenor	*	*
*	*I'pf	*I'S	*	*
*clefF4	*clefG2	*clefG2	*	*
*k[]	*k[]	*k[]	*	*
*C:	*C:	*C:	*	*
*M4/4	*M4/4	*M4/4	*	*
*met(c)	*met(c)	*met(c)	*	*
=1	=1	=1	=1	=1
!!LO:TX:t=P:problem:all\right:global
4C 4CC\	(>4c 4G< 4E<'>/	1c	do	<
4C 4CC\	4c 4G< 4E<'>/	.	.	.
4C 4CC\	4c 4G< 4E<'>/	.	.	[ >
4C 4CC\	4c 4G< 4E<'>/)	.	.	]]
=2	=2	=2	=2	=2
4BB 4BBB\	(>4d 4G<'>/	1d	re	<
4BB 4BBB\	4d 4G<'>/	.	.	.
4BB 4BBB\	4d 4G<'>/	.	.	[ >
4BB 4BBB\	4d 4G<'>/)	.	.	]]
=3	=3	=3	=3	=3
4C 4CC\	(>4e 4c 4G<'>/	1e	mi	<
4C 4CC\	4e 4c 4G<'>/	.	.	.
4C 4CC\	4e 4c 4G<'>/	.	.	[ >
4C 4CC\	4e 4c 4G<'>/)	.	.	]]
=4	=4	=4	=4	=4
4AA 4AAA\	(>4f 4c 4F<'>/	1f	fa	<
4AA 4AAA\	4f 4c 4F<'>/	.	.	.
4AA 4AAA\	4f 4c 4F<'>/	.	.	[ >
4AA 4AAA\	4f 4c 4F<'>/)	.	.	]]
=5	=5	=5	=5	=5
4E 4EE\	(>4g 4c 4G<'>/	1g	sol	<
4E 4EE\	4g 4c 4G<'>/	.	.	.
4E 4EE\	4g 4c 4G<'>/	.	.	[ >
4E 4EE\	4g 4c 4G<'>/)	.	.	]]
=6	=6	=6	=6	=6
4F 4FF\	(>4a 4f 4c'>/	1a	la	<
4F 4FF\	4a 4f 4c'>/	.	.	.
4F 4FF\	4a 4f 4c'>/	.	.	[ >
4F 4FF\	4a 4f 4c'>/)	.	.	]]
!!LO:LB:g=original
=7	=7	=7	=7	=7
!	!	!	!	!LO:HP:b
4D 4DD/	(>4b 4g 4f'>/	1b	si	<
4D 4DD/	4b 4g 4f'>/	.	.	.
!	!	!	!	!LO:HP:b
4D 4DD/	4b 4g 4f'>/	.	.	[ >
4D 4DD/	4b 4g 4f'>/)	.	.	]]
=8	=8	=8	=8	=8
!	!	!	!	!LO:HP:b
4C 4CC/	(>4cc 4g 4e'>/	1cc	do	<
4C 4CC/	4cc 4g 4e'>/	.	.	.
!	!	!	!	!LO:HP:b
4C 4CC/	4cc 4g 4e'>/	.	.	[ >
4C 4CC/	4cc 4g 4e'>/)	.	.	]]
=9	=9	=9	=9	=9
!	!	!	!	!LO:HP:b
4B 4BB\	(>4dd 4g 4d'>/	1dd	re	<
4B 4BB\	4dd 4g 4d'>/	.	.	.
!	!	!	!	!LO:HP:b
4B 4BB\	4dd 4g 4d'>/	.	.	[ >
4B 4BB\	4dd 4g 4d'>/)	.	.	]]
=10	=10	=10	=10	=10
!	!	!	!	!LO:HP:b
4B-X 4BB-X\	(>4ee 4cc 4g'>\	1ee	mi	<
4B- 4BB-\	4ee 4cc 4g'>\	.	.	.
!	!	!	!	!LO:HP:b
4B- 4BB-\	4ee 4cc 4g'>\	.	.	[ >
4B- 4BB-\	4ee 4cc 4g'>\)	.	.	]]
=11	=11	=11	=11	=11
!	!	!	!	!LO:HP:b
4A 4AA\	(>4ff 4cc 4f'>\	1ff	fa	<
4A 4AA\	4ff 4cc 4f'>\	.	.	.
!	!	!	!	!LO:HP:b
4A 4AA\	4ff 4cc 4f'>\	.	.	[ >
4A 4AA\	4ff 4cc 4f'>\)	.	.	]]
=12	=12	=12	=12	=12
!	!	!	!	!LO:HP:b
4E 4EE/	(>4gg 4cc 4g'>\	1gg	sol	<
4E 4EE/	4gg 4cc 4g'>\	.	.	.
!	!	!	!	!LO:HP:b
4E 4EE/	4gg 4cc 4g'>\	.	.	[ >
4E 4EE/	4gg 4cc 4g'>\)	.	.	]]
=13	=13	=13	=13	=13
!	!	!	!	!LO:HP:b
4F 4FF/	(>4aa 4ff 4cc'>\	1aa	la	<
4F 4FF/	4aa 4ff 4cc'>\	.	.	.
!	!	!	!	!LO:HP:b
4F 4FF/	4aa 4ff 4cc'>\	.	.	[ >
4F 4FF/	4aa 4ff 4cc'>\)	.	.	]]
=14||	=14||	=14||	=14||	=14||
!	!	!	!	!LO:HP:b
4F 4FF/	(>4aa 4ff 4cc'>\	1aa	la	<
4F 4FF/	4aa 4ff 4cc'>\	.	.	.
!	!	!	!	!LO:HP:b
4F 4FF/	4aa 4ff 4cc'>\	.	.	[ >
4F 4FF/	4aa 4ff 4cc'>\)	.	.	]]
!!LO:LB:g=original
=15	=15	=15	=15	=15
!	!	!	!	!LO:HP:b
4E 4EE/	(>4gg 4cc 4g'>\	1gg	sol	<
4E 4EE/	4gg 4cc 4g'>\	.	.	.
!	!	!	!	!LO:HP:b
4E 4EE/	4gg 4cc 4g'>\	.	.	[ >
4E 4EE/	4gg 4cc 4g'>\)	.	.	]]
=16	=16	=16	=16	=16
!	!	!	!	!LO:HP:b
4D 4DD/	(>4ff 4b 4g'>\	1ff	fa	<
4D 4DD/	4ff 4b 4g'>\	.	.	.
!	!	!	!	!LO:HP:b
4D 4DD/	4ff 4b 4g'>\	.	.	[ >
4D 4DD/	4ff 4b 4g'>\)	.	.	]]
=17	=17	=17	=17	=17
!	!	!	!	!LO:HP:b
4C 4CC/	(>4ee 4cc 4g'>\	1ee	mi	<
4C 4CC/	4ee 4cc 4g'>\	.	.	.
!	!	!	!	!LO:HP:b
4C 4CC/	4ee 4cc 4g'>\	.	.	[ >
4C 4CC/	4ee 4cc 4g'>\)	.	.	]]
=18	=18	=18	=18	=18
!	!	!	!	!LO:HP:b
4BB 4BBB/	(>4dd 4g'>/	1dd	re	<
4BB 4BBB/	4dd 4g'>/	.	.	.
!	!	!	!	!LO:HP:b
4BB 4BBB/	4dd 4g'>/	.	.	[ >
4BB 4BBB/	4dd 4g'>/)	.	.	]]
=19	=19	=19	=19	=19
!	!	!	!	!LO:HP:b
4A 4AA\	(>4cc 4f#X 4d'>/	1cc	do	<
4A 4AA\	4cc 4f# 4d'>/	.	.	.
!	!	!	!	!LO:HP:b
4A 4AA\	4cc 4f# 4d'>/	.	.	[ >
4A 4AA\	4cc 4f# 4d'>/)	.	.	]]
=20	=20	=20	=20	=20
!	!	!	!	!LO:HP:b
4G 4GG\	(>4b 4g 4d'>/	1b	si	<
4G 4GG\	4b 4g 4d'>/	.	.	.
!	!	!	!	!LO:HP:b
4G 4GG\	4b 4g 4d'>/	.	.	[ >
4G 4GG\	4b 4g 4d'>/)	.	.	]]
=21	=21	=21	=21	=21
!	!	!	!	!LO:HP:b
4D 4DD/	(>4a 4f#X 4d 4c'>/	1a	la	<
4D 4DD/	4a 4f# 4d 4c'>/	.	.	.
!	!	!	!	!LO:HP:b
4D 4DD/	4a 4f# 4d 4c'>/	.	.	[ >
4D 4DD/	4a 4f# 4d 4c'>/)	.	.	]]
=22	=22	=22	=22	=22
!	!	!	!	!LO:HP:b
4G 4GG\	(>4g 4d 4B'>/	1g	sol	<
4G 4GG\	4g 4d 4B'>/	.	.	.
!	!	!	!	!LO:HP:b
4G 4GG\	4g 4d 4B'>/	.	.	[ >
4G 4GG\	4g 4d 4B'>/)	.	.	]]
!!LO:LB:g=original
=23	=23	=23	=23	=23
4BB 4BBB\	(>4f 4d 4G<'>/	1f	fa	<
4BB 4BBB\	4f 4d 4G<'>/	.	.	.
4BB 4BBB\	4f 4d 4G<'>/	.	.	[ >
4BB 4BBB\	4f 4d 4G<'>/)	.	.	]]
=24	=24	=24	=24	=24
4C 4CC\	(>4e 4c 4G<'>/	1e	mi	<
4C 4CC\	4e 4c 4G<'>/	.	.	.
4C 4CC\	4e 4c 4G<'>/	.	.	[ >
4C 4CC\	4e 4c 4G<'>/)	.	.	]]
=25	=25	=25	=25	=25
4F 4GG\	(>4d 4B 4G<'>/	1d	re	<
4F 4GG\	4d 4B 4G<'>/	.	.	.
4F 4GG\	4d 4B 4G<'>/	.	.	[ >
4F 4GG\	4d 4B 4G<'>/)	.	.	]]
=26	=26	=26	=26	=26
4E 4C\	(>4c 4G<'>/	1c	do.	<
4E 4C\	4c 4G<'>/	.	.	.
4E 4C\	4c 4G<'>/	.	.	[ >
4E 4C\	4c 4G<'>/)	.	.	]]
==	==	==	==	==
*-	*-	*-	*-	*-
!!!system-decoration: s1{(s2,s3)}
!!!RDF**kern: > = above
!!!RDF**kern: < = below
!!!RDF**kern: | = vertical stroke
!!!RDF**kern: N = linked
!!!RDF**kern: i = editorial accidental
!!!EED: Wojciech Jakubiak-Danek
!!!EEV: 2021-06-03
!!!ENC: Tomasz Grochalski
!!!END: 2021-05-16
!!!YEC: Copyright 2022 Narodowy Instytut Fryderyka Chopina (https://polishscores.org)
!!!YEM: License CC-BY-4.0 (https://creativecommons.org/licenses/by/4.0)
